!!!OTL: Koenigs Hochzeit.
!!!OTL-incipit: ES WOLLT EIN KOENIG WOHL REISEN
!!!COM: Volksweise
!!!ARE: Europa, Mitteleuropa, Deutschland
!!!SCT: F0873
!!!TXL: @@DE
!!!YEM: Copyright 1995, estate of Helmut Schaffrath.
**kern	**text
*ICvox	*
*clefG2	*
*M6/8	*
*k[b-]	*
*F:	*
{8a	1._Es
=1	=1
4cc	wollt'
8cc	ein
(8cc	König
8a)	.
8cc	wohl
=2	=2
4.a	rei-
4f}	-ſen
{8f	mit
=3	=3
4g	ſei-
8g	-nen
4e	Hoch-
8e	-ʒeits-
=4	=4
(>4f	-leu-
8a)	.
4cc}	-ten;
{8a	er
=5	=5
[8.cc	1._rei-
16cc]	-ſte
8a	wohl
4cc	ü-
8a	-ber
=6	=6
[8.cc	Berg
16cc]	.
8a	und
4g}	Thal,
{8g	da
=7	=7
[>8g	ſtand
8g]	ſein
8g	Feins-
[>8g	-liebchen
8f]	.
8g	wohl
=8	=8
[8a	ü-
8a]	-ber
8cc/	der
4a;}	Saal'.
==	==
!!!AGN: erzaehlendes Volks - Lied, Ballade
!!!ONB: ESAC (Essen Associative Code) Database: FINK
!!!AMT: compound duple
!!!AIN: vox
!!!EED: Helmut Schaffrath
!!!EEV: 1.0
!!!GTL: Romanzen und Balladen
!!Text: Volkslied
!!!source: Musikalischer Hausschatz der Deutschen. Eine Sammlung von über 1000 Liedern und Gesängen mit Singstimmen und Klavierbegleitung. Leipzig, Litterarisches Verlags-Haus.
!!!page: 626
!!!URL-scan: https://www.digitale-sammlungen.de/en/view/bsb11144622?page=562
!!!ENC: Anna Maria Matuszewska
!!!EEV: 2024/08/07
*-	*-